projects/plugins/boost/app/assets/src/images/footer-automattic.svg

<svg fill="none" height="7" viewBox="0 0 177 7" width="177" xmlns="http://www.w3.org/2000/svg" xmlns:xlink="http://www.w3.org/1999/xlink"><clipPath id="a"><path d="m0 0h176.556v7h-176.556z"/></clipPath><g clip-path="url(#a)" fill="#000" fill-opacity=".8"><path d="m59.8778 7c-2.3793 0-3.9088-1.66754-3.9088-3.39005v-.2199c0-1.75916 1.5484-3.39005 3.9088-3.39005 2.3792 0 3.9276 1.63089 3.9276 3.39005v.2199c0 1.72251-1.5484 3.39005-3.9276 3.39005zm2.6625-3.59162c0-1.2644-.9442-2.3822-2.6625-2.3822-1.7184 0-2.6436 1.1178-2.6436 2.3822v.16492c0 1.2644.9441 2.40052 2.6436 2.40052 1.6994 0 2.6625-1.13612 2.6625-2.40052zm-29.4952 3.33508-.8875-1.61257h-3.9465l-.8497 1.61257h-1.3218l3.6066-6.50524h1.0386l3.6821 6.50524zm-2.8891-5.24084-1.454 2.73036h2.9647zm9.9513 5.49738c-2.3981 0-3.5311-1.2644-3.5311-2.96859v-3.79319h1.2463v3.82984c0 1.20943.812 1.92409 2.3604 1.92409 1.5861 0 2.247-.71466 2.247-1.92409v-3.82984h1.2652v3.79319c0 1.61257-1.0574 2.96859-3.5878 2.96859zm10.6123-5.75393v5.49739h-1.2652v-5.49739h-2.9269v-1.00785h7.1189v1.00785zm24.3023 5.49739v-5.14922l-.3399.56806-2.8135 4.58116h-.6232l-2.7758-4.58116-.3399-.56806v5.14922h-1.2274v-6.50524h1.7373l2.6436 4.4712.321.54974.321-.54974 2.6247-4.4712h1.7184v6.50524zm10.7822 0-.8875-1.61257h-3.9466l-.8497 1.61257h-1.3218l3.6255-6.50524h1.0386l3.6821 6.50524zm-2.8891-5.24084-1.454 2.73036h2.9646zm9.3093-.25655v5.49739h-1.2652v-5.49739h-2.9269v-1.00785h7.1189v1.00785zm9.2337 0v5.49739h-1.265v-5.49739h-2.927v-1.00785h7.119v1.00785zm6.043 5.49739v-5.900528c.509 0 .698-.256545.698-.623037h.529v6.505235zm11.084-4.67278c-.604-.53141-1.492-1.0445-2.682-1.0445-1.793 0-2.794 1.1911-2.794 2.43717v.12827c0 1.22775 1.019 2.3822 2.889 2.3822 1.114 0 2.039-.51309 2.625-1.0445l.755.76963c-.737.69634-1.983 1.30105-3.456 1.30105-2.53 0-4.078-1.59424-4.078-3.3534v-.2199c0-1.75916 1.68-3.4267 4.135-3.4267 1.416 0 2.7.568063 3.399 1.30105zm-57.8764.20157c.2266.1466.2833.43979.1511.65969l-1.1519 1.72251c-.151.2199-.4532.29319-.6798.1466-.2265-.1466-.2832-.43979-.151-.65969l1.1518-1.72251c.1511-.23822.4532-.2932.6798-.1466z"/><path d="m7.0811 6.72526-.88749-1.63089h-3.98431l-.86861 1.63089h-1.34069l3.66329-6.578531h1.05745l3.71994 6.578531zm-2.92685-5.29581-1.47287 2.76702h3.00239zm11.48085 5.29581-4.3997-4.3979-.4344-.45812v4.87435h-1.26511v-6.596861h1.22741l4.2675 4.397901.4343.47644v-4.874341h1.2652v6.578531z"/><path d="m135.938 6.78009-.907-1.63089h-3.984l-.868 1.63089h-1.341l3.682-6.596862h1.058l3.738 6.596862zm-2.927-5.31414-1.473 2.76702h3.003zm5.401 5.31414v-6.596862h1.284v6.596862zm9.063 0c-.34 0-.491-.45812-.547-1.06283l-.038-.67801c-.038-.65969-.321-.93456-1.586-.93456h-2.417v2.6754h-1.265v-6.596862h3.701c2.039 0 2.964.787958 2.964 1.814132 0 .71466-.377 1.411-1.699 1.64922 1.322.09162 1.605.67801 1.624 1.44764l.019.54974c.019.45812.094.78796.415 1.1178v.01833zm-.472-4.6178c0-.47644-.396-.93456-1.491-.93456h-2.606v1.97906h2.719c.944 0 1.378-.43979 1.378-.95288zm3.078 4.6178v-6.596862h1.284v5.570682h5.325v1.02618zm7.912 0v-6.596862h1.284v6.596862zm9.347 0-4.418-4.41623-.435-.45812v4.87435h-1.284v-6.596862h1.228l4.286 4.416232.434.47644v-4.892672h1.284v6.596862zm3.04 0v-6.596862h6.175v1.026182h-4.91v1.68586h3.777v1.00785h-3.777v1.85079h4.91v1.02618z"/></g></svg>

<svg width="177" height="7" viewBox="0 0 177 7" fill="none" xmlns="http://www.w3.org/2000/svg">
<g clip-path="url(#clip0)">
<path d="M59.8778 7C57.4985 7 55.969 5.33246 55.969 3.60995V3.39005C55.969 1.63089 57.5174 0 59.8778 0C62.257 0 63.8054 1.63089 63.8054 3.39005V3.60995C63.8054 5.33246 62.257 7 59.8778 7ZM62.5403 3.40838C62.5403 2.14398 61.5961 1.02618 59.8778 1.02618C58.1594 1.02618 57.2342 2.14398 57.2342 3.40838V3.5733C57.2342 4.8377 58.1783 5.97382 59.8778 5.97382C61.5772 5.97382 62.5403 4.8377 62.5403 3.5733V3.40838ZM33.0451 6.74346L32.1576 5.13089H28.2111L27.3614 6.74346H26.0396L29.6462 0.23822H30.6848L34.3669 6.74346H33.0451ZM30.156 1.50262L28.702 4.23298H31.6667L30.156 1.50262ZM40.1073 7C37.7092 7 36.5762 5.7356 36.5762 4.03141V0.23822H37.8225V4.06806C37.8225 5.27749 38.6345 5.99215 40.1829 5.99215C41.769 5.99215 42.4299 5.27749 42.4299 4.06806V0.23822H43.6951V4.03141C43.6951 5.64398 42.6377 7 40.1073 7ZM50.7196 1.24607V6.74346H49.4544V1.24607H46.5275V0.23822H53.6464V1.24607H50.7196ZM75.0219 6.74346V1.59424L74.682 2.1623L71.8685 6.74346H71.2453L68.4695 2.1623L68.1296 1.59424V6.74346H66.9022V0.23822H68.6395L71.2831 4.70942L71.6041 5.25916L71.9251 4.70942L74.5498 0.23822H76.2682V6.74346H75.0219ZM85.8041 6.74346L84.9166 5.13089H80.97L80.1203 6.74346H78.7985L82.424 0.23822H83.4626L87.1447 6.74346H85.8041ZM82.915 1.50262L81.461 4.23298H84.4256L82.915 1.50262ZM92.2243 1.24607V6.74346H90.9591V1.24607H88.0322V0.23822H95.1511V1.24607H92.2243ZM101.458 1.24607V6.74346H100.193V1.24607H97.266V0.23822H104.385V1.24607H101.458ZM107.501 6.74346V0.842932C108.01 0.842932 108.199 0.586387 108.199 0.219895H108.728V6.72513L107.501 6.74346ZM118.585 2.07068C117.981 1.53927 117.093 1.02618 115.903 1.02618C114.11 1.02618 113.109 2.21728 113.109 3.46335V3.59162C113.109 4.81937 114.128 5.97382 115.998 5.97382C117.112 5.97382 118.037 5.46073 118.623 4.92932L119.378 5.69895C118.641 6.39529 117.395 7 115.922 7C113.392 7 111.844 5.40576 111.844 3.6466V3.4267C111.844 1.66754 113.524 0 115.979 0C117.395 0 118.679 0.568063 119.378 1.30105L118.585 2.07068ZM60.7086 2.27225C60.9352 2.41885 60.9919 2.71204 60.8597 2.93194L59.7078 4.65445C59.5568 4.87435 59.2546 4.94764 59.028 4.80105C58.8015 4.65445 58.7448 4.36126 58.877 4.14136L60.0288 2.41885C60.1799 2.18063 60.482 2.12565 60.7086 2.27225Z" fill="black" fill-opacity="0.8"/>
<path d="M7.0811 6.72526L6.19361 5.09437H2.2093L1.34069 6.72526H0L3.66329 0.146729H4.72074L8.44068 6.72526H7.0811ZM4.15425 1.42945L2.68138 4.19647H5.68377L4.15425 1.42945ZM15.6351 6.72526L11.2354 2.32736L10.801 1.86924V6.74359H9.53589V0.146729H10.7633L15.0308 4.54463L15.4651 5.02107V0.146729H16.7303V6.72526H15.6351Z" fill="black" fill-opacity="0.8"/>
<path d="M135.938 6.78009L135.031 5.1492H131.047L130.179 6.78009H128.838L132.52 0.183228H133.578L137.316 6.78009H135.938ZM133.011 1.46595L131.538 4.23297H134.541L133.011 1.46595ZM138.412 6.78009V0.183228H139.696V6.78009H138.412ZM147.475 6.78009C147.135 6.78009 146.984 6.32197 146.928 5.71726L146.89 5.03925C146.852 4.37956 146.569 4.10469 145.304 4.10469H142.887V6.78009H141.622V0.183228H145.323C147.362 0.183228 148.287 0.971186 148.287 1.99736C148.287 2.71202 147.91 3.40836 146.588 3.64658C147.91 3.7382 148.193 4.32459 148.212 5.09422L148.231 5.64396C148.25 6.10208 148.325 6.43192 148.646 6.76176V6.78009H147.475ZM147.003 2.16229C147.003 1.68585 146.607 1.22773 145.512 1.22773H142.906V3.20679H145.625C146.569 3.20679 147.003 2.767 147.003 2.25391V2.16229ZM150.081 6.78009V0.183228H151.365V5.75391H156.69V6.78009H150.081ZM157.993 6.78009V0.183228H159.277V6.78009H157.993ZM167.34 6.78009L162.922 2.36386L162.487 1.90574V6.78009H161.203V0.183228H162.431L166.717 4.59946L167.151 5.0759V0.183228H168.435V6.78009H167.34ZM170.38 6.78009V0.183228H176.555V1.20941H171.645V2.89527H175.422V3.90312H171.645V5.75391H176.555V6.78009H170.38Z" fill="black" fill-opacity="0.8"/>
</g>
<defs>
<clipPath id="clip0">
<rect width="176.556" height="7" fill="white"/>
</clipPath>
</defs>
</svg>
